src/images/icons/Studies icon.svg

<svg width="121" height="127" viewBox="0 0 121 127" fill="none" xmlns="http://www.w3.org/2000/svg">
<path d="M23.0998 30.2015C21.2998 29.6015 19.5997 27.5015 18.9997 24.8015C18.3997 22.1015 18.8997 19.5016 20.2997 18.1016C22.0997 18.7016 23.7998 20.8015 24.3998 23.5015C24.8998 25.7015 24.5997 27.8015 23.7997 29.3015" stroke="currentColor" stroke-width="2" stroke-miterlimit="10" stroke-linecap="round" stroke-linejoin="round"/>
<path d="M13.999 45.0023C10.699 45.0023 6.7991 42.6023 4.1991 38.5023C1.5991 34.4023 0.999049 29.9023 2.39905 26.9023C5.69905 26.9023 9.5991 29.3023 12.1991 33.4023C14.3991 36.8023 15.099 40.4023 14.499 43.3023" stroke="currentColor" stroke-width="2" stroke-miterlimit="10" stroke-linecap="round" stroke-linejoin="round"/>
<path d="M9.30078 37.7031L14.0007 45.0031" stroke="currentColor" stroke-width="2" stroke-miterlimit="10" stroke-linecap="round" stroke-linejoin="round"/>
<path d="M6.99915 34.1008L6.19922 32.8008" stroke="currentColor" stroke-width="2" stroke-miterlimit="10" stroke-linecap="round" stroke-linejoin="round"/>
<path d="M33.2009 21.3008C31.4009 18.5008 31.4011 13.9008 33.4011 9.50079C35.4011 5.10079 39.001 2.20078 42.301 1.80078C44.101 4.60078 44.101 9.20083 42.101 13.6008C40.201 17.8008 36.6009 20.7008 33.2009 21.3008Z" stroke="currentColor" stroke-width="2" stroke-miterlimit="10" stroke-linecap="round" stroke-linejoin="round"/>
<path d="M36.8994 13.4023L33.1992 21.3023" stroke="currentColor" stroke-width="2" stroke-miterlimit="10" stroke-linecap="round" stroke-linejoin="round"/>
<path d="M38.6992 9.60156L39.3994 8.10156" stroke="currentColor" stroke-width="2" stroke-miterlimit="10" stroke-linecap="round" stroke-linejoin="round"/>
<path d="M33.1984 21.3008C22.1984 28.6008 13.4984 40.9008 11.3984 54.5008" stroke="currentColor" stroke-width="2" stroke-miterlimit="10" stroke-linecap="round" stroke-linejoin="round"/>
<path d="M46.3984 15.4023C45.5984 15.6023 44.6984 15.9024 43.8984 16.1024" stroke="currentColor" stroke-width="2" stroke-miterlimit="10" stroke-linecap="round" stroke-linejoin="round"/>
<path d="M102.898 37.5996C101.698 36.4996 99.8983 35.6996 97.7983 35.5996C94.9983 35.3996 92.5984 36.3996 91.3984 37.8996C92.2984 39.5996 94.5984 40.8996 97.3984 41.0996C100.198 41.2996 102.598 40.2996 103.798 38.7996" stroke="currentColor" stroke-width="2" stroke-miterlimit="10" stroke-linecap="round" stroke-linejoin="round"/>
<path d="M18.5 36.202C19.6 37.702 22.1001 38.702 24.9001 38.502C27.7001 38.302 30.0001 37.002 30.9001 35.302C29.8001 33.802 27.3 32.802 24.5 33.002C22.6 33.102 20.9 33.802 19.8 34.702" stroke="currentColor" stroke-width="2" stroke-miterlimit="10" stroke-linecap="round" stroke-linejoin="round"/>
<path d="M106.699 44.8014C109.999 44.9014 114 42.5014 116.6 38.5014C119.3 34.5014 119.899 29.9014 118.499 26.9014C115.199 26.8014 111.2 29.2014 108.6 33.2014C106.5 36.4014 105.7 39.9014 106.1 42.7014" stroke="currentColor" stroke-width="2" stroke-miterlimit="10" stroke-linecap="round" stroke-linejoin="round"/>
<path d="M111.399 37.6016L106.699 44.8015" stroke="currentColor" stroke-width="2" stroke-miterlimit="10" stroke-linecap="round" stroke-linejoin="round"/>
<path d="M113.801 34.0031L114.701 32.7031" stroke="currentColor" stroke-width="2" stroke-miterlimit="10" stroke-linecap="round" stroke-linejoin="round"/>
<path d="M101.098 34.4023C105.198 40.3023 107.998 47.1023 109.198 54.5023" stroke="currentColor" stroke-width="2" stroke-miterlimit="10" stroke-linecap="round" stroke-linejoin="round"/>
<path d="M57.8008 120.699H68.0007" stroke="currentColor" stroke-width="2" stroke-miterlimit="10" stroke-linecap="round" stroke-linejoin="round"/>
<path d="M79.6991 120.699H114.999V125.999H6.69922V120.699H53.5992" stroke="currentColor" stroke-width="2" stroke-miterlimit="10" stroke-linecap="round" stroke-linejoin="round"/>
<path d="M12 120.402V115.102H109.7V120.402" stroke="currentColor" stroke-width="2" stroke-miterlimit="10" stroke-linecap="round" stroke-linejoin="round"/>
<path d="M19.7992 66.6008H6.69922V61.3008H114.999V66.6008H27.4991" stroke="currentColor" stroke-width="2" stroke-miterlimit="10" stroke-linecap="round" stroke-linejoin="round"/>
<path d="M15.3984 114.902V66.6016" stroke="currentColor" stroke-width="2" stroke-miterlimit="10" stroke-linecap="round" stroke-linejoin="round"/>
<path d="M106.301 92.1992V114.899" stroke="currentColor" stroke-width="2" stroke-miterlimit="10" stroke-linecap="round" stroke-linejoin="round"/>
<path d="M106.301 66.6016V82.9016" stroke="currentColor" stroke-width="2" stroke-miterlimit="10" stroke-linecap="round" stroke-linejoin="round"/>
<path d="M60.7983 31.3984L15.3984 61.2984H106.298L60.7983 31.3984Z" stroke="currentColor" stroke-width="2" stroke-miterlimit="10" stroke-linecap="round" stroke-linejoin="round"/>
<path d="M39.8008 50.1984L43.9009 47.3984" stroke="currentColor" stroke-width="2" stroke-miterlimit="10" stroke-linecap="round" stroke-linejoin="round"/>
<path d="M72.2993 57.0992H29.1992L36.6992 52.1992" stroke="currentColor" stroke-width="2" stroke-miterlimit="10" stroke-linecap="round" stroke-linejoin="round"/>
<path d="M49.5977 43.7008L60.7976 36.3008L92.4976 57.1008H78.6975" stroke="currentColor" stroke-width="2" stroke-miterlimit="10" stroke-linecap="round" stroke-linejoin="round"/>
<path d="M60.8 52.7015C63.1749 52.7015 65.1001 50.7764 65.1001 48.4016C65.1001 46.0267 63.1749 44.1016 60.8 44.1016C58.4252 44.1016 56.5 46.0267 56.5 48.4016C56.5 50.7764 58.4252 52.7015 60.8 52.7015Z" stroke="currentColor" stroke-width="2" stroke-miterlimit="10" stroke-linecap="round" stroke-linejoin="round"/>
<path d="M60.7976 6.40002C62.2888 6.40002 63.4976 5.19118 63.4976 3.70001C63.4976 2.20884 62.2888 1 60.7976 1C59.3064 1 58.0977 2.20884 58.0977 3.70001C58.0977 5.19118 59.3064 6.40002 60.7976 6.40002Z" stroke="currentColor" stroke-width="2" stroke-miterlimit="10" stroke-linecap="round" stroke-linejoin="round"/>
<path d="M58.1992 33.1V27H63.4993V33.1" stroke="currentColor" stroke-width="2" stroke-miterlimit="10" stroke-linecap="round" stroke-linejoin="round"/>
<path d="M60.8008 26.9984V6.39844" stroke="currentColor" stroke-width="2" stroke-miterlimit="10" stroke-linecap="round" stroke-linejoin="round"/>
<path d="M60.8008 8.10156H87.6008C88.7008 8.10156 89.6008 9.00156 89.6008 10.1016V20.7015C89.6008 21.8015 88.7008 22.7015 87.6008 22.7015H60.8008" stroke="currentColor" stroke-width="2" stroke-miterlimit="10" stroke-linecap="round" stroke-linejoin="round"/>
<path d="M89.5977 14.6992H98.9976C99.7976 14.6992 100.298 15.5992 99.7976 16.2992L95.8977 21.8992L99.8977 27.6992C100.298 28.2992 99.8977 29.1992 99.0977 29.1992H74.9976C73.3976 29.1992 72.0977 27.8992 72.0977 26.2992V22.4992" stroke="currentColor" stroke-width="2" stroke-miterlimit="10" stroke-linecap="round" stroke-linejoin="round"/>
<path d="M27.5 114.902V84.3015C27.5 80.3015 30.7 77.1016 34.7 77.1016C38.7 77.1016 41.9001 80.3015 41.9001 84.3015V115.002" stroke="currentColor" stroke-width="2" stroke-miterlimit="10" stroke-linecap="round" stroke-linejoin="round"/>
<path d="M37.8008 97.6992V114.999" stroke="currentColor" stroke-width="2" stroke-miterlimit="10" stroke-linecap="round" stroke-linejoin="round"/>
<path d="M31.6992 97.6992V84.2992C31.6992 82.5992 33.0993 81.1992 34.7993 81.1992C36.4993 81.1992 37.8994 82.5992 37.8994 84.2992V92.0992" stroke="currentColor" stroke-width="2" stroke-miterlimit="10" stroke-linecap="round" stroke-linejoin="round"/>
<path d="M31.6992 114.999V104.699" stroke="currentColor" stroke-width="2" stroke-miterlimit="10" stroke-linecap="round" stroke-linejoin="round"/>
<path d="M53.5977 115.002V84.3015C53.5977 80.3015 56.7976 77.1016 60.7976 77.1016C64.7976 77.1016 67.9976 80.3015 67.9976 84.3015V115.002" stroke="currentColor" stroke-width="2" stroke-miterlimit="10" stroke-linecap="round" stroke-linejoin="round"/>
<path d="M63.8984 107.199V114.999" stroke="currentColor" stroke-width="2" stroke-miterlimit="10" stroke-linecap="round" stroke-linejoin="round"/>
<path d="M57.8008 114.999V84.2992C57.8008 82.5992 59.2009 81.1992 60.9009 81.1992C62.6009 81.1992 64.0007 82.5992 64.0007 84.2992V90.6992" stroke="currentColor" stroke-width="2" stroke-miterlimit="10" stroke-linecap="round" stroke-linejoin="round"/>
<path d="M79.6992 114.902V84.3015C79.6992 80.3015 82.8994 77.1016 86.8994 77.1016C90.8994 77.1016 94.0994 80.3015 94.0994 84.3015V114.902" stroke="currentColor" stroke-width="2" stroke-miterlimit="10" stroke-linecap="round" stroke-linejoin="round"/>
<path d="M90 108.699V114.899" stroke="currentColor" stroke-width="2" stroke-miterlimit="10" stroke-linecap="round" stroke-linejoin="round"/>
<path d="M83.8984 91.3992V84.2992C83.8984 82.5992 85.2983 81.1992 86.9983 81.1992C88.6983 81.1992 90.0984 82.5992 90.0984 84.2992V101.499" stroke="currentColor" stroke-width="2" stroke-miterlimit="10" stroke-linecap="round" stroke-linejoin="round"/>
<path d="M83.8984 114.899V107.699" stroke="currentColor" stroke-width="2" stroke-miterlimit="10" stroke-linecap="round" stroke-linejoin="round"/>
<path d="M24.6992 71.3008H59.6992" stroke="currentColor" stroke-width="2" stroke-miterlimit="10" stroke-linecap="round" stroke-linejoin="round"/>
<path d="M66.3984 71.3008H75.0984" stroke="currentColor" stroke-width="2" stroke-miterlimit="10" stroke-linecap="round" stroke-linejoin="round"/>
<path d="M83.6992 71.3008H96.9993" stroke="currentColor" stroke-width="2" stroke-miterlimit="10" stroke-linecap="round" stroke-linejoin="round"/>
<path d="M69.8984 13.3984H81.6982" stroke="currentColor" stroke-width="2" stroke-miterlimit="10" stroke-linecap="round" stroke-linejoin="round"/>
<path d="M81.7 17.3008H77" stroke="currentColor" stroke-width="2" stroke-miterlimit="10" stroke-linecap="round" stroke-linejoin="round"/>
</svg>

<svg xmlns="http://www.w3.org/2000/svg" width="121" height="127" fill="none" viewBox="0 0 121 127">
  <path stroke="currentColor" stroke-linecap="round" stroke-linejoin="round" stroke-miterlimit="10" stroke-width="2" d="M23.1 30.201c-1.8-.6-3.5-2.7-4.1-5.4-.6-2.7-.1-5.3 1.3-6.7 1.8.6 3.5 2.7 4.1 5.4.5 2.2.2 4.3-.6 5.8m-9.801 15.701c-3.3 0-7.2-2.4-9.8-6.5-2.6-4.1-3.2-8.6-1.8-11.6 3.3 0 7.2 2.4 9.8 6.5 2.2 3.4 2.9 7 2.3 9.9M9.3 37.703l4.7 7.3M7 34.1l-.8-1.3m27-11.5c-1.8-2.8-1.799-7.4.201-11.8s5.6-7.3 8.9-7.7c1.8 2.8 1.8 7.4-.2 11.8-1.9 4.2-5.5 7.1-8.9 7.7Zm3.7-7.898-3.7 7.9m5.5-11.7.7-1.5"/>
  <path stroke="currentColor" stroke-linecap="round" stroke-linejoin="round" stroke-miterlimit="10" stroke-width="2" d="M33.198 21.3c-11 7.3-19.7 19.6-21.8 33.2m35-39.098c-.8.2-1.7.5-2.5.7m59 21.498c-1.2-1.1-3-1.9-5.1-2-2.8-.2-5.2.8-6.4 2.3.9 1.7 3.2 3 6 3.2 2.8.2 5.2-.8 6.4-2.3"/>
  <path stroke="currentColor" stroke-linecap="round" stroke-linejoin="round" stroke-miterlimit="10" stroke-width="2" d="M18.5 36.202c1.1 1.5 3.6 2.5 6.4 2.3 2.8-.2 5.1-1.5 6-3.2-1.1-1.5-3.6-2.5-6.4-2.3-1.9.1-3.6.8-4.7 1.7m86.899 10.099c3.3.1 7.301-2.3 9.901-6.3 2.7-4 3.299-8.6 1.899-11.6-3.3-.1-7.299 2.3-9.899 6.3-2.1 3.2-2.9 6.7-2.5 9.5m5.299-5.099-4.7 7.2m7.102-10.799.9-1.3"/>
  <path stroke="currentColor" stroke-linecap="round" stroke-linejoin="round" stroke-miterlimit="10" stroke-width="2" d="M101.098 34.402c4.1 5.9 6.9 12.7 8.1 20.1M57.8 120.699H68m11.7 0h35.299v5.3H6.699v-5.3h46.9M12 120.402v-5.3h97.7v5.3M19.8 66.6H6.7v-5.3h108.299v5.3h-87.5m-12.101 48.302v-48.3M106.301 92.2v22.699m0-48.297v16.3M60.798 31.398l-45.4 29.9h90.9l-45.5-29.9ZM39.8 50.198l4.1-2.8"/>
  <path stroke="currentColor" stroke-linecap="round" stroke-linejoin="round" stroke-miterlimit="10" stroke-width="2" d="M72.3 57.1H29.2l7.5-4.9m12.898-8.5 11.2-7.4 31.7 20.8h-13.8"/>
  <path stroke="currentColor" stroke-linecap="round" stroke-linejoin="round" stroke-miterlimit="10" stroke-width="2" d="M60.8 52.702a4.3 4.3 0 1 0 0-8.6 4.3 4.3 0 0 0 0 8.6ZM60.798 6.4a2.7 2.7 0 1 0 0-5.4 2.7 2.7 0 0 0 0 5.4ZM58.2 33.1V27h5.3v6.1m-2.7-6.102v-20.6m0 1.704h26.8c1.1 0 2 .9 2 2v10.6c0 1.1-.9 2-2 2H60.8"/>
  <path stroke="currentColor" stroke-linecap="round" stroke-linejoin="round" stroke-miterlimit="10" stroke-width="2" d="M89.598 14.7h9.4c.8 0 1.3.9.8 1.6l-3.9 5.6 4 5.8c.4.6 0 1.5-.8 1.5h-24.1c-1.6 0-2.9-1.3-2.9-2.9v-3.8M27.5 114.902v-30.6c0-4 3.2-7.2 7.2-7.2s7.2 3.2 7.2 7.2v30.7M37.8 97.7v17.299"/>
  <path stroke="currentColor" stroke-linecap="round" stroke-linejoin="round" stroke-miterlimit="10" stroke-width="2" d="M31.7 97.7V84.3c0-1.7 1.4-3.1 3.1-3.1 1.7 0 3.1 1.4 3.1 3.1v7.8m-6.2 22.899v-10.3m21.898 10.303v-30.7c0-4 3.2-7.2 7.2-7.2s7.2 3.2 7.2 7.2v30.7m-4.1-7.803v7.8"/>
  <path stroke="currentColor" stroke-linecap="round" stroke-linejoin="round" stroke-miterlimit="10" stroke-width="2" d="M57.8 114.999v-30.7c0-1.7 1.4-3.1 3.1-3.1 1.7 0 3.1 1.4 3.1 3.1v6.4m15.7 24.203v-30.6c0-4 3.2-7.2 7.2-7.2s7.2 3.2 7.2 7.2v30.6m-4.1-6.203v6.2"/>
  <path stroke="currentColor" stroke-linecap="round" stroke-linejoin="round" stroke-miterlimit="10" stroke-width="2" d="M83.898 91.4v-7.1c0-1.7 1.4-3.1 3.1-3.1 1.7 0 3.1 1.4 3.1 3.1v17.199m-6.2 13.4v-7.2M24.7 71.3h35m6.698 0h8.7m8.602 0H97M69.898 13.398h11.8M81.7 17.3H77"/>
</svg>
